X:668
T:Vals # 668
M:3/4
L:1/8
Q:180
K:A
e4{fg}f2|e2c2Ac|e2ed cB|A2cea2|e4{fg}f2|e2c2Ac|e2ed cB|
|1A4z2:|2A4E2|: A2A2B2|c2cBA2|B2BAG2|A2AFE2|A2A2B2|
c2cBA2|B2BAG2|1A4E2:|2A4z2||
"@-75,60 Valsen spelades med följande förstämning:"[A,EAe]

